front/public/static/landing/logos/gray/pennylane.svg

<svg fill="none" height="240" viewBox="0 0 600 240" width="600" xmlns="http://www.w3.org/2000/svg" xmlns:xlink="http://www.w3.org/1999/xlink"><mask id="a" height="84" maskUnits="userSpaceOnUse" width="461" x="69" y="78"><path d="m529.999 78.511h-460.0029v82.978h460.0029z" fill="#fff"/></mask><g fill="#364153" mask="url(#a)"><path d="m187.764 135.998v18.444h-8.467v-55.0032h7.257c.101.6582.211 1.3532.32 2.0722 9.844-4.9987 17.739-4.0751 23.497 2.706 5.946 7.002 6.279 19.993.703 27.608-5.222 7.133-12.93 8.572-23.31 4.178zm-1.036-16.612c.061.495.171 2.052.451 3.573.918 4.978 3.679 7.676 8.053 7.963 5.162.339 8.443-1.897 9.99-6.962 1.096-3.576 1.113-7.239.069-10.815-1.121-3.834-3.439-6.54-7.655-7.15-6.871-.993-10.896 3.54-10.908 13.391z"/><path d="m257.391 120.78h-27.557c.609 4.451 2.111 8.04 6.664 9.422 4.832 1.467 8.873-.152 12.28-4.971 2.68.813 5.417 1.643 8.179 2.481-3.793 8.956-13.982 13.179-23.57 9.933-9.937-3.364-14.892-13.828-11.968-25.269 2.534-9.917 11.379-15.6066 21.625-13.9143 9.828 1.6223 15.391 10.1493 14.347 22.3223zm-27.066-6.602h18.262c-.211-5.477-3.326-8.49-8.613-8.473-5.625.016-9.499 3.405-9.649 8.473z"/><path d="m529.658 120.794h-27.408c.551 4.317 1.963 7.849 6.37 9.316 4.882 1.627 8.732.139 12.621-4.864 2.657.801 5.35 1.618 8.05 2.432-2.945 8.469-13.489 13.031-23.043 10.113-10.144-3.103-15.423-13.849-12.445-25.335 2.723-10.517 12.094-16.1258 22.939-13.7265 9.017 1.9905 14.771 11.6985 12.919 22.0695zm-8.611-6.576c-.419-5.834-3.512-8.67-9.174-8.511-5.255.147-9.062 3.675-9.154 8.511z"/><path d="m433.959 112.472c-.187-2.931-1.249-5.151-4.244-5.964-5.271-1.439-9.462.221-11.978 4.848-2.435-.761-4.912-1.537-7.608-2.383 1.576-5.171 4.79-8.429 9.813-9.9373 9.37-2.8162 19.157.6091 21.513 7.7333.708 2.138.891 4.525.918 6.802.098 7.795.026 15.594.009 23.393 0 .119-.098.241-.203.475h-7.241v-4.914c-4.728 5.568-10.35 6.814-16.644 5.796-5.085-.821-8.844-4.565-9.463-9.278-.78-5.919 1.632-10.522 6.838-12.721 5.796-2.452 12.081-2.731 18.29-3.85zm-.253 7.067c-4.521.838-9.01 1.169-13.165 2.898-2.274.944-3.84 2.555-3.378 5.347.426 2.575 2.268 3.617 4.545 3.936 7.401 1.034 12.912-4.496 12.005-12.181z"/><path d="m451.557 99.3709h7.536v3.8631c6.137-5.4777 12.828-6.7326 19.872-3.3113 5.783 2.8083 7.313 8.4903 7.507 14.3723.252 7.639.062 15.291.062 23.103h-8.548c0-5.069.052-10.178-.02-15.288-.043-2.767-.017-5.588-.534-8.285-1.039-5.408-4.171-7.91-8.87-7.575-4.839.344-8.034 3.499-8.211 8.87-.239 7.366-.059 14.749-.059 22.282h-8.741v-38.0311z"/><path d="m343.584 137.477h-8.633c0-5.584 0-11.171 0-16.759 0-2.845.04-5.69-.861-8.449-1.284-3.941-3.883-6.111-8.098-6.021-4.321.09-7.253 2.236-8.195 6.47-1.486 6.688-.394 13.506-.682 20.262-.061 1.415-.008 2.833-.008 4.415h-8.431v-37.9858h7.35c.057 1.1238.114 2.2478.191 3.7648 2.652-2.42 5.401-4.0918 8.723-4.7091 10.36-1.921 17.544 3.7201 18.47 14.6091.121 1.414.162 2.845.166 4.263.016 6.634.008 13.273.008 20.136z"/><path d="m290.414 137.409c0-7.546.276-15.002-.09-22.425-.284-5.731-3.598-8.743-8.447-8.755-4.946-.013-8.183 2.848-8.702 8.538-.459 5.049-.244 10.158-.305 15.243-.028 2.428-.004 4.852-.004 7.411h-8.479v-38.0557h7.35c.061 1.1207.122 2.2437.203 3.8177 2.672-2.416 5.417-4.0955 8.731-4.7128 10.425-1.9417 17.564 3.7278 18.526 14.8098.11 1.283.126 2.575.13 3.862.013 6.708.004 13.416.004 20.271h-8.917z"/><path d="m364.493 154.524h-7.968c2.084-5.784 4.11-11.404 6.205-17.221-5.068-12.504-10.185-25.134-15.375-37.9492h8.85c3.464 8.8782 6.968 17.8672 10.639 27.2842 3.545-9.336 6.956-18.324 10.367-27.3045h8.509c-7.114 18.5005-14.168 36.8335-21.231 55.1905z"/><path d="m400.153 137.467h-8.286v-51.9331h8.286z"/><path d="m110.978 106.279c-9.645 6.43-10.534 20.107-.093 27.407-5.625 3.9-14.3396 2.473-19.4525-3.176-5.2182-5.767-5.3604-14.621-.3329-20.691 4.8692-5.878 13.5844-7.476 19.8784-3.54z"/><path d="m111.481 133.674c9.507-6.299 10.676-20.001.093-27.436 5.653-3.802 14.425-2.416 19.363 3.049 5.308 5.878 5.502 14.789.455 20.851-4.914 5.898-13.491 7.48-19.915 3.532z"/><path d="m111.215 161.491c-22.7292 0-41.2189-18.611-41.2189-41.489 0-22.8785 18.4897-41.4893 41.2189-41.4893 22.73 0 41.219 18.6108 41.219 41.4893 0 22.878-18.489 41.489-41.219 41.489zm0-73.9856c-17.8033 0-32.2847 14.5766-32.2847 32.4966s14.4814 32.496 32.2847 32.496c17.804 0 32.285-14.576 32.285-32.496s-14.481-32.4966-32.285-32.4966z"/></g></svg>

<svg width="600" height="240" viewBox="0 0 600 240" fill="none" xmlns="http://www.w3.org/2000/svg">
<mask id="mask0_1904_3663" style="mask-type:luminance" maskUnits="userSpaceOnUse" x="69" y="78" width="461" height="84">
<path d="M529.999 78.511H69.9961V161.489H529.999V78.511Z" fill="white"/>
</mask>
<g mask="url(#mask0_1904_3663)">
<path d="M187.764 135.998V154.442H179.297V99.4388H186.554C186.655 100.097 186.765 100.792 186.874 101.511C196.718 96.5123 204.613 97.4359 210.371 104.217C216.317 111.219 216.65 124.21 211.074 131.825C205.852 138.958 198.144 140.397 187.764 136.003V135.998ZM186.728 119.386C186.789 119.881 186.899 121.438 187.179 122.959C188.097 127.937 190.858 130.635 195.232 130.922C200.394 131.261 203.675 129.025 205.222 123.96C206.318 120.384 206.335 116.721 205.291 113.145C204.17 109.311 201.852 106.605 197.636 105.995C190.765 105.002 186.74 109.535 186.728 119.386Z" fill="#364153"/>
<path d="M257.391 120.78H229.834C230.443 125.231 231.945 128.82 236.498 130.202C241.33 131.669 245.371 130.05 248.778 125.231C251.458 126.044 254.195 126.874 256.957 127.712C253.164 136.668 242.975 140.891 233.387 137.645C223.45 134.281 218.495 123.817 221.419 112.376C223.953 102.459 232.798 96.7694 243.044 98.4617C252.872 100.084 258.435 108.611 257.391 120.784V120.78ZM230.325 114.178H248.587C248.376 108.701 245.261 105.688 239.974 105.705C234.349 105.721 230.475 109.11 230.325 114.178Z" fill="#364153"/>
<path d="M529.658 120.794H502.25C502.801 125.111 504.213 128.643 508.62 130.11C513.502 131.737 517.352 130.249 521.241 125.246C523.898 126.047 526.591 126.864 529.291 127.678C526.346 136.147 515.802 140.709 506.248 137.791C496.104 134.688 490.825 123.942 493.803 112.456C496.526 101.939 505.897 96.3302 516.742 98.7295C525.759 100.72 531.513 110.428 529.661 120.799L529.658 120.794ZM521.047 114.218C520.628 108.384 517.535 105.548 511.873 105.707C506.618 105.854 502.811 109.382 502.719 114.218H521.047Z" fill="#364153"/>
<path d="M433.959 112.472C433.772 109.541 432.71 107.321 429.715 106.508C424.444 105.069 420.253 106.729 417.737 111.356C415.302 110.595 412.825 109.819 410.129 108.973C411.705 103.802 414.919 100.544 419.942 99.0357C429.312 96.2195 439.099 99.6448 441.455 106.769C442.163 108.907 442.346 111.294 442.373 113.571C442.471 121.366 442.399 129.165 442.382 136.964C442.382 137.083 442.284 137.205 442.179 137.439H434.938V132.525C430.21 138.093 424.588 139.339 418.294 138.321C413.209 137.5 409.45 133.756 408.831 129.043C408.051 123.124 410.463 118.521 415.669 116.322C421.465 113.87 427.75 113.591 433.959 112.472ZM433.706 119.539C429.185 120.377 424.696 120.708 420.541 122.437C418.267 123.381 416.701 124.992 417.163 127.784C417.589 130.359 419.431 131.401 421.708 131.72C429.109 132.754 434.62 127.224 433.713 119.539H433.706Z" fill="#364153"/>
<path d="M451.557 99.3709H459.093V103.234C465.23 97.7563 471.921 96.5014 478.965 99.9227C484.748 102.731 486.278 108.413 486.472 114.295C486.724 121.934 486.534 129.586 486.534 137.398H477.986C477.986 132.329 478.038 127.22 477.966 122.11C477.923 119.343 477.949 116.522 477.432 113.825C476.393 108.417 473.261 105.915 468.562 106.25C463.723 106.594 460.528 109.749 460.351 115.12C460.112 122.486 460.292 129.869 460.292 137.402H451.551V99.3709H451.557Z" fill="#364153"/>
<path d="M343.584 137.477H334.951C334.951 131.893 334.951 126.306 334.951 120.718C334.951 117.873 334.991 115.028 334.09 112.269C332.806 108.328 330.207 106.158 325.992 106.248C321.671 106.338 318.739 108.484 317.797 112.718C316.311 119.406 317.403 126.224 317.115 132.98C317.054 134.395 317.107 135.813 317.107 137.395H308.676V99.4092H316.026C316.083 100.533 316.14 101.657 316.217 103.174C318.869 100.754 321.618 99.0822 324.94 98.4649C335.3 96.5439 342.484 102.185 343.41 113.074C343.531 114.488 343.572 115.919 343.576 117.337C343.592 123.971 343.584 130.61 343.584 137.473V137.477Z" fill="#364153"/>
<path d="M290.414 137.409C290.414 129.863 290.69 122.407 290.324 114.984C290.04 109.253 286.726 106.241 281.877 106.229C276.931 106.216 273.694 109.077 273.175 114.767C272.716 119.816 272.931 124.925 272.87 130.01C272.842 132.438 272.866 134.862 272.866 137.421H264.387V99.3653H271.737C271.798 100.486 271.859 101.609 271.94 103.183C274.612 100.767 277.357 99.0875 280.671 98.4702C291.096 96.5285 298.235 102.198 299.197 113.28C299.307 114.563 299.323 115.855 299.327 117.142C299.34 123.85 299.331 130.558 299.331 137.413H290.414V137.409Z" fill="#364153"/>
<path d="M364.493 154.524H356.525C358.609 148.74 360.635 143.12 362.73 137.303C357.662 124.799 352.545 112.169 347.355 99.3538H356.205C359.669 108.232 363.173 117.221 366.844 126.638C370.389 117.302 373.8 108.314 377.211 99.3335H385.72C378.606 117.834 371.552 136.167 364.489 154.524H364.493Z" fill="#364153"/>
<path d="M400.153 137.467H391.867V85.5339H400.153V137.467Z" fill="#364153"/>
<path d="M110.978 106.279C101.333 112.709 100.444 126.386 110.885 133.686C105.26 137.586 96.5454 136.159 91.4325 130.51C86.2143 124.743 86.0721 115.889 91.0996 109.819C95.9688 103.941 104.684 102.343 110.978 106.279Z" fill="#364153"/>
<path d="M111.481 133.674C120.988 127.375 122.157 113.673 111.574 106.238C117.227 102.436 125.999 103.822 130.937 109.287C136.245 115.165 136.439 124.076 131.392 130.138C126.478 136.036 117.901 137.618 111.477 133.67L111.481 133.674Z" fill="#364153"/>
<path d="M111.215 161.491C88.4858 161.491 69.9961 142.88 69.9961 120.002C69.9961 97.1235 88.4858 78.5127 111.215 78.5127C133.945 78.5127 152.434 97.1235 152.434 120.002C152.434 142.88 133.945 161.491 111.215 161.491ZM111.215 87.5054C93.4117 87.5054 78.9303 102.082 78.9303 120.002C78.9303 137.922 93.4117 152.498 111.215 152.498C129.019 152.498 143.5 137.922 143.5 120.002C143.5 102.082 129.019 87.5054 111.215 87.5054Z" fill="#364153"/>
</g>
</svg>
